svg/UnitedNationsOCHA-Humanitarian/food_NFI_bucket_icon_box.svg

<svg xmlns="http://www.w3.org/2000/svg" viewBox="0 0 32 32" enable-background="new 0 0 32 32"><path fill="#407cca" d="m25.6 0h-19.2c-3.52 0-6.4 2.88-6.4 6.4v19.2c0 3.52 2.88 6.4 6.4 6.4h19.2c3.521 0 6.4-2.88 6.4-6.4v-19.2c0-3.52-2.88-6.4-6.4-6.4m-5.642 28h-8.381l-2.744-13.995-.053-.299h14.207l-3.03 14.294m2.625-15.881c-.425 0-.763-.34-.763-.766-.006-3.211-2.612-5.815-5.819-5.82-3.219.005-5.815 2.609-5.819 5.82 0 .425-.34.766-.769.766-.422 0-.766-.34-.766-.766.0001-4.062 3.292-7.353 7.354-7.353 4.059 0 7.35 3.291 7.35 7.353.0001.425-.346.766-.768.766"/></svg>

<?xml version="1.0" encoding="utf-8"?>
<!-- Generator: Adobe Illustrator 16.0.3, SVG Export Plug-In . SVG Version: 6.00 Build 0)  -->
<!DOCTYPE svg PUBLIC "-//W3C//DTD SVG 1.1//EN" "http://www.w3.org/Graphics/SVG/1.1/DTD/svg11.dtd">
<svg version="1.1" id="Layer_1" xmlns="http://www.w3.org/2000/svg" xmlns:xlink="http://www.w3.org/1999/xlink" x="0px" y="0px"
	 width="32px" height="32px" viewBox="0 0 32 32" enable-background="new 0 0 32 32" xml:space="preserve">
<path fill="#407CCA" d="M25.6,0H6.4C2.88,0,0,2.88,0,6.4v19.2C0,29.12,2.88,32,6.4,32h19.2c3.521,0,6.4-2.88,6.4-6.4V6.4
	C32,2.88,29.12,0,25.6,0z M19.958,28h-8.381L8.833,14.005L8.78,13.706h14.207L19.958,28z M22.583,12.119
	c-0.425,0-0.763-0.34-0.763-0.766c-0.006-3.211-2.612-5.815-5.819-5.82c-3.219,0.005-5.815,2.609-5.819,5.82
	c0,0.425-0.34,0.766-0.769,0.766c-0.422,0-0.766-0.34-0.766-0.766C8.648,7.291,11.939,4,16.001,4c4.059,0,7.35,3.291,7.35,7.353
	C23.352,11.778,23.005,12.119,22.583,12.119z"/>
</svg>
